X:1
T:The River of Life
T:The River of Life
T:William James Kirkpatrick
T:Mattie W. Torrey, 1875
T:Public Domain Courtesy of the Cyber Hymnal™
T:Public Domain Courtesy of the Cyber Hymnal™
C:William James Kirkpatrick
Z:Public Domain
Z:Courtesy of the Cyber Hymnal™
%%score ( 1 2 ) ( 3 4 )
L:1/8
Q:1/4=100
M:6/8
K:Ab
V:1 treble 
V:2 treble 
V:3 bass 
V:4 bass 
V:1
 [CE] | [C-E]3 [CE][DF][B,G] | [C-A]3 [CA][DG][CA] | [E-B]3 [EB][Ec][DB] | [C-A]3 [CE]2 [CE] | %5
w: 1.~O|won- * der- ful|riv- * er! O|life * giv- ing|riv- That flows|
w: 2.~O|throne * of the|Lamb, * with its|glo- * ry un-|spok- O trees|
w: 3.~We|pine * in the|bond- * age that|sin * has thrown|o’er We long|
 [DF]3 ([FA][EG])[DF] | [CE]3 [EA]2 [EB] | [E-c]3 [Ec][Fd][Ec] | [EB]3- [EB]2 [DE] | %9
w: thro’ the * streets|of the ci-|ty * a- bove;|The * trees|
w: He hath * plant-|ed for heal-|ing * and rest!|Shine * on|
w: for the * joy|and the free-|dom * of home—|To * join|
 [C-E]3 [CE][DF][B,G] | [C-A]3 [CA][DG][CA] | [E-B]3 [EB][Ec][DB] | [CA]3 [CE]2 E | %13
w: on * thy mar-|gin, * that bloss-|om * and quiv-|er, Bring forth|
w: in * our vi-|sion, * and give|us * a tok-|en To com-|
w: in * the swell|of * the glor-|i- * fied chor-|us, To drink|
 [Ed-]3 [Gd][Ac][EB] | [Ee]3 [Fc]2 [CA] | [Ec]3 [Ec]2 [DB] | [CA]3- [CA]2 z || %17
w: for the na- tions|a fruit- age|of love. Won-|der- *|
w: fort the heart that|is sore and|op- pressed. *||
w: of the riv- er|that flows from|the throne. *||
"^Refrain" e4 [Ed][Ec] | c3 [Fd]2 z | d4 [Ac][EB] | B3 [Ec]2 z | A4 [DG][CA] | B4 [CA][EB] | %23
w: ful riv- er!|Won- der-|ful riv- er!|Glad- dening|the plains where|the ran- somed|
w: ||||||
w: ||||||
 c4 [Ed][Ec] | B3- [EB]2 z | [Ee]3 [Ee][Ed][Ec] | [Fc]3 [Fd]2 z | [Gd][Gd][Gd] [Gd][Ec][EB] | %28
w: a- bide: Flow|on- ward|* for- ev- er,|won- der-|ful, won- der- ful riv- er!|
w: |||||
w: |||||
 [EB]3 [Ec]2 z | A4 [GB][_Gc] | d4 [Ae][Af] | [Ae]3 [EG]2 [EG] | [EA]3- [EA]2 |] %33
w: Pure as|thy source, which|no dark- ness|can hide! *||
w: |||||
w: |||||
V:2
 x | x6 | x6 | x6 | x6 | x6 | x6 | x6 | x6 | x6 | x6 | x6 | x5 E | x6 | x6 | x6 | x6 || %17
 (EEE E) x2 | (FFF) x3 | (GGG G) x2 | (EEE) x3 | (EEE E) x2 | (EEE E) x2 | (EEE E) x2 | EGF x3 | %25
 x6 | x6 | x6 | x6 | (EEE A) x2 | (FAA A) x2 | x6 | x5 |] %33
V:3
 [A,,A,] | [A,,A,-]3 [A,,A,][A,,A,][A,,E,] | [A,,-E,]3 [A,,E,][A,,E,][A,,E,] | %3
w: ~|~ * ~ ~|~ * ~ ~|
 [E,G,-]3 [E,G,][E,A,][E,G,] | [A,,A,]3- [A,,A,]2 [A,,A,] | [D,A,]3 [D,A,]2 [D,A,] | %6
w: ~ ~ ~ ~|~ * ~|~ ~ ~|
 [A,,A,]3 [C,A,]2 [E,G,] | A,3- A,A,A, | [E,G,]3- [E,G,]2 [E,G,] | %9
w: ~ ~ ~|~ * ~ ~|~ * ~|
 [A,,A,-]3 [A,,A,][A,,A,][A,,E,] | [A,,E,-]3 [A,,E,][A,,E,][A,,E,] | [E,G,-]3 [E,G,][E,A,][E,G,] | %12
w: ~ * ~ ~|~ ~ ~ ~|~ ~ ~ ~|
 [A,,A,]3 [A,,A,]2 [C,A,] | [B,,G,]3 (B,A,)[E,G,] | [C,G,]3 [F,A,]2 [F,A,] | %15
w: ~ ~ ~|~ ~ * ~|~ ~ ~|
 [E,A,]3 [E,G,]2 [E,G,] | [A,,A,]3- [A,,A,]2 z || [A,C][A,C][A,C] [A,C][A,B,]A, | %18
w: ~ Won- der-|ful, *|won- der- ful riv- er of|
 [F,=A,][F,A,][F,A,] [B,,B,]2 z | [E,B,][E,B,][E,B,] [E,B,][E,A,][E,G,] | %20
w: life! Won- der- ful,|won- der- ful riv- er of|
 [E,G,][E,G,][E,G,] [A,,A,]2 z | [A,,C][A,,C][A,,C] [A,,C][A,,B,][A,,A,] | %22
w: life! Glad- dening the|plains where the ran- somed a-|
 [E,G,][E,G,][E,G,] [E,G,][E,A,][E,G,] | A,A,A, A,[G,B,]A, | G,B,A, [E,G,]2 z | %25
w: bide, where the ran- somed in|glo- ry a- bide! * *||
 [A,,C]3 [A,C][A,B,]A, | [F,=A,]3 [B,,B,]2 z | [E,B,][E,B,][E,B,] [E,B,][E,A,][E,G,] | %28
w: |||
 [E,G,]3 [A,,A,]2 z | [A,C][A,C][A,C] [A,C][A,D][A,E] | [D,D][D,F][D,F] [D,F][C,E][C,D] | %31
w: |||
 [E,C]3 [E,B,]2 [E,D] | [A,,C]3- [A,,C]2 |] %33
w: ||
V:4
 x | x6 | x6 | x6 | x6 | x6 | x6 | A,3 A,A,A, | x6 | x6 | x6 | x6 | x6 | x3 E,2 x | x6 | x6 | x6 || %17
 x5 A, | x6 | x6 | x6 | x6 | x6 | A,A,A, A,A, x | E,3- x3 | x5 A, | x6 | x6 | x6 | x6 | x6 | x6 | %32
 x5 |] %33

